X:295
T: WER NIEMALS EINEN RAUSCH GEHABT
N: B0347
O: Europa, Mitteleuropa, Deutschland
R: Trink - Lied
M: 2/4
L: 1/16
K: C
CE | GAG^FGAGF | G2E2C2
E2 | D2F2G,2B,2 | C2E2G2
E2 | D2F2G,2B,2 | C4z2
CE | GAG^FGAGF | G2E2C2
E2 | D2F2G,2B,2 | C2E2G2
E2 | D2F2G,2B,2 | C4z2
E2 | D2D2E2E2 | F2F2E2
E2 | D2D2E2E2 | F2F2E2
E2 | D2D2E2E2 | F4z4 | E4z4 | D6
CE | GAG^FGAGF | G2E2C2
E2 | D2F2G,2B,2 | C2E2G2
E2 | D2F2G,2B,2 | C4z2

@@@ Tune index: 2098
